!!!OTL: Nongyie jijiehua zaolaidao
!!!ARE: Asia, China,ÿHunan, Zhuzhou
!! I, 508
!!!SCT: C1719
!!!YEM: Copyright 1995, estate of Helmut Schaffrath.
**kern
*ICvox
*Ivox
*M2/4
*k[b-]
*F:
{8cc
8a
8a
8cc
=1
4a
4r}
=2
{8d
8f
8a
8f
=3
4d
4r}
=4
{8.a
16cc
8a
8a
=5
8f
8cc
4a}
=6
{8cc
8f
8a
8a
=7
8d
8cc
8a
8a
=8
8d
8f
8a
8f
=9
2d}
=10
{8f
8a
8d
8f
=11
4a
4r}
=12
{8d
8f
8a
8f
=13
4d
4r}
=14
{8.a
16cc
4a}
=15
{8.f
16cc
4a}
=16
{8cc
8f
8a
8r}
=17
{8d
8cc
8a
8r}
=18
{8cc
8f
8a
8a
=19
8d
8cc
8a
8a
=20
8.d
16f
8a
8f
=21
2d}
=22
{8f
8a
8d
8f
=23
4a
4r}
=24
{8d
8f
8a
8f
=25
4d
4r}
=26
{8f
8a
8d
8f
=27
2a}
=28
{8d
8f
8a
8f
=29
2d}
=30
{8.a
16cc
4a
=31
8f
8cc
4a}
=32
{8cc
8f
8a
16a
16a
=33
8d
8cc
8a
16a
16a
=34
8.d
16f
8a
8f
=35
2d}
==
!!!AGN: Xiaodiao, Naowugeng, Erge. Xin minge
!!!ONB: ESAC (Essen Associative Code) Database: ZHEN
!!!AMT: simple duple
!!!AIN: vox
!!!EED: Helmut Schaffrath
!!!EEV: 1.0
*-
